lib/healthicons/icons/solid/objects/coins.svg

<svg fill="none" height="48" viewBox="0 0 48 48" width="48" xmlns="http://www.w3.org/2000/svg"><g clip-rule="evenodd" fill="#333" fill-rule="evenodd"><path d="m37.9725 27.9747c1.2838-2.0153 2.0275-4.4082 2.0275-6.9747 0-7.1797-5.8203-13-13-13-2.5665 0-4.9593.74375-6.9747 2.0275-1.3674.0773-2.6917.3162-3.9539.6979 2.7359-2.9089 6.6201-4.7254 10.9286-4.7254 8.2843 0 15 6.7157 15 15 0 4.3085-1.8165 8.1927-4.7254 10.9286.3817-1.2622.6207-2.5864.6979-3.9539z"/><path d="m39.9333 28.6028c-.726 1.2324-1.6232 2.3519-2.6587 3.3258.3817-1.2622.6207-2.5864.6979-3.9539 0 .0002.0001-.0002 0 0 1.2835-2.0149 2.0272-4.4072 2.0275-6.9732 0-.0005 0-.001 0-.0015 0-7.1797-5.8203-13-13-13-2.5665 0-4.9593.74375-6.9747 2.0275-1.3674.0773-2.6917.3162-3.9539.6979.974-1.03552 2.0934-1.93263 3.3258-2.65864 2.2201-1.3079 4.8065-2.06047 7.5682-2.06672.0115-.00003.0231-.00004.0346-.00004 8.2843 0 15 6.7157 15 15 0 .151-.0022.3014-.0066.4513-.077 2.6051-.8182 5.0434-2.0601 7.1515z"/><path d="m36 27c0 8.2843-6.7157 15-15 15s-15-6.7157-15-15 6.7157-15 15-15 15 6.7157 15 15zm-16-5c-1.1046 0-2 .8954-2 2s.8954 2 2 2zm2-2v-1h-2v1c-2.2091 0-4 1.7909-4 4s1.7909 4 4 4v4c-.8693 0-1.6114-.5551-1.8865-1.3332-.184-.5208-.7553-.7937-1.276-.6096-.5208.184-.7937.7553-.6096 1.276.5486 1.5523 2.0289 2.6668 3.7721 2.6668v1h2v-1c2.2091 0 4-1.7909 4-4s-1.7909-4-4-4v-4c.8693 0 1.6114.5551 1.8865 1.3332.184.5208.7553.7937 1.276.6096.5208-.184.7937-.7553.6096-1.276-.5486-1.5523-2.0289-2.6668-3.7721-2.6668zm0 8v4c1.1046 0 2-.8954 2-2s-.8954-2-2-2z"/></g></svg>

<svg width="48" height="48" viewBox="0 0 48 48" fill="none" xmlns="http://www.w3.org/2000/svg">
<path fill-rule="evenodd" clip-rule="evenodd" d="M37.9725 27.9747C39.2563 25.9594 40 23.5665 40 21C40 13.8203 34.1797 8 27 8C24.4335 8 22.0407 8.74375 20.0253 10.0275C18.6579 10.1048 17.3336 10.3437 16.0714 10.7254C18.8073 7.8165 22.6915 6 27 6C35.2843 6 42 12.7157 42 21C42 25.3085 40.1835 29.1927 37.2746 31.9286C37.6563 30.6664 37.8953 29.3422 37.9725 27.9747Z" fill="#333333"/>
<path fill-rule="evenodd" clip-rule="evenodd" d="M39.9333 28.6028C39.2073 29.8352 38.3101 30.9547 37.2746 31.9286C37.6563 30.6664 37.8953 29.3422 37.9725 27.9747C37.9725 27.9749 37.9726 27.9745 37.9725 27.9747C39.256 25.9598 39.9997 23.5675 40 21.0015C40 21.001 40 21.0005 40 21C40 13.8203 34.1797 8 27 8C24.4335 8 22.0407 8.74375 20.0253 10.0275C20.0251 10.0275 20.0256 10.0275 20.0253 10.0275C18.6579 10.1048 17.3336 10.3437 16.0714 10.7254C17.0454 9.68988 18.1648 8.79277 19.3972 8.06676C21.6173 6.75886 24.2037 6.00629 26.9654 6.00004C26.9769 6.00001 26.9885 6 27 6C35.2843 6 42 12.7157 42 21C42 21.151 41.9978 21.3014 41.9934 21.4513C41.9164 24.0564 41.1752 26.4947 39.9333 28.6028Z" fill="#333333"/>
<path fill-rule="evenodd" clip-rule="evenodd" d="M36 27C36 35.2843 29.2843 42 21 42C12.7157 42 6 35.2843 6 27C6 18.7157 12.7157 12 21 12C29.2843 12 36 18.7157 36 27ZM20 22C18.8954 22 18 22.8954 18 24C18 25.1046 18.8954 26 20 26V22ZM22 20V19H20V20C17.7909 20 16 21.7909 16 24C16 26.2091 17.7909 28 20 28V32C19.1307 32 18.3886 31.4449 18.1135 30.6668C17.9295 30.146 17.3582 29.8731 16.8375 30.0572C16.3167 30.2412 16.0438 30.8125 16.2279 31.3332C16.7765 32.8855 18.2568 34 20 34V35H22V34C24.2091 34 26 32.2091 26 30C26 27.7909 24.2091 26 22 26V22C22.8693 22 23.6114 22.5551 23.8865 23.3332C24.0705 23.854 24.6418 24.1269 25.1625 23.9428C25.6833 23.7588 25.9562 23.1875 25.7721 22.6668C25.2235 21.1145 23.7432 20 22 20ZM22 28V32C23.1046 32 24 31.1046 24 30C24 28.8954 23.1046 28 22 28Z" fill="#333333"/>
</svg>
